austria/municipalities/31658.svg

<?xml version="1.0" encoding="UTF-8"?>
<!DOCTYPE svg PUBLIC "-//W3C//DTD SVG 1.1//EN" "http://www.w3.org/Graphics/SVG/1.1/DTD/svg11.dtd">
<svg xmlns="http://www.w3.org/2000/svg" version="1.1" width="102px" height="107px" style="shape-rendering:geometricPrecision; text-rendering:geometricPrecision; image-rendering:optimizeQuality; fill-rule:evenodd; clip-rule:evenodd" xmlns:xlink="http://www.w3.org/1999/xlink">
<g><path style="opacity:1" fill="#fefefd" d="M -0.5,-0.5 C 33.5,-0.5 67.5,-0.5 101.5,-0.5C 101.5,35.1667 101.5,70.8333 101.5,106.5C 67.5,106.5 33.5,106.5 -0.5,106.5C -0.5,70.8333 -0.5,35.1667 -0.5,-0.5 Z"/></g>
<g><path style="opacity:1" fill="#ad3c43" d="M 10.5,4.5 C 36.8333,4.5 63.1667,4.5 89.5,4.5C 89.0269,5.90632 88.0269,6.57298 86.5,6.5C 74.8381,5.83345 63.0048,5.50012 51,5.5C 38.8139,5.50098 26.9806,6.16765 15.5,7.5C 13.6316,6.73685 11.9649,5.73685 10.5,4.5 Z"/></g>
<g><path style="opacity:1" fill="#030a01" d="M 89.5,4.5 C 89.5,4.16667 89.5,3.83333 89.5,3.5C 91.8333,3.5 94.1667,3.5 96.5,3.5C 96.1763,18.0785 96.5096,32.5785 97.5,47C 96.8828,49.277 96.2161,51.4437 95.5,53.5C 95.5,53.1667 95.5,52.8333 95.5,52.5C 95.8296,36.6578 95.4963,20.9911 94.5,5.5C 93.0813,4.54885 91.4147,4.21552 89.5,4.5 Z"/></g>
<g><path style="opacity:1" fill="#1c0900" d="M 89.5,3.5 C 89.5,3.83333 89.5,4.16667 89.5,4.5C 63.1667,4.5 36.8333,4.5 10.5,4.5C 8.90097,4.23219 7.56764,4.56552 6.5,5.5C 5.88258,5.38929 5.38258,5.05596 5,4.5C 4.5001,17.8292 4.33344,31.1625 4.5,44.5C 4.16667,44.5 3.83333,44.5 3.5,44.5C 3.5,30.8333 3.5,17.1667 3.5,3.5C 32.1667,3.5 60.8333,3.5 89.5,3.5 Z"/></g>
<g><path style="opacity:1" fill="#d72933" d="M 86.5,6.5 C 77.9929,12.8432 71.4929,20.8432 67,30.5C 59.7666,46.3759 55.2666,63.0426 53.5,80.5C 51.7699,84.8833 50.7699,89.5499 50.5,94.5C 48.019,81.6343 45.519,68.6343 43,55.5C 39.2369,43.7641 34.5702,32.4308 29,21.5C 24.9692,16.3039 20.4692,11.6373 15.5,7.5C 26.9806,6.16765 38.8139,5.50098 51,5.5C 63.0048,5.50012 74.8381,5.83345 86.5,6.5 Z"/></g>
<g><path style="opacity:1" fill="#408a0a" d="M 93.5,6.5 C 94.1656,10.3188 94.4989,14.3188 94.5,18.5C 94.639,23.0091 94.139,27.3424 93,31.5C 88.0858,28.2028 82.5858,26.5361 76.5,26.5C 76.0233,25.5224 75.3567,24.6891 74.5,24C 75.2524,23.3292 75.5858,22.4959 75.5,21.5C 79.0932,13.5704 85.0932,8.57044 93.5,6.5 Z"/></g>
<g><path style="opacity:1" fill="#4e7d2d" d="M 6.5,5.5 C 9.75414,5.79362 12.4208,7.12695 14.5,9.5C 11.3815,8.68274 8.3815,7.68274 5.5,6.5C 5.5,19.5 5.5,32.5 5.5,45.5C 4.83333,45.5 4.5,45.1667 4.5,44.5C 4.33344,31.1625 4.5001,17.8292 5,4.5C 5.38258,5.05596 5.88258,5.38929 6.5,5.5 Z"/></g>
<g><path style="opacity:1" fill="#4a851b" d="M 93.5,6.5 C 93.5,5.83333 93.8333,5.5 94.5,5.5C 95.4963,20.9911 95.8296,36.6578 95.5,52.5C 94.8333,53.1667 94.1667,53.8333 93.5,54.5C 94.3619,49.1871 94.5285,43.8538 94,38.5C 93.6667,40.1667 93.3333,41.8333 93,43.5C 90.8856,44.9533 89.5522,46.9533 89,49.5C 86.6978,51.5013 84.1978,52.0013 81.5,51C 82.2524,51.6708 82.5858,52.5041 82.5,53.5C 80.5541,52.7456 79.7207,51.4122 80,49.5C 82.2669,49.1387 84.4336,48.8054 86.5,48.5C 88.1436,46.5193 89.8103,44.5193 91.5,42.5C 91.1243,40.6171 90.1243,39.1171 88.5,38C 89.91,37.6322 90.91,36.7989 91.5,35.5C 89.7979,32.9633 87.6312,30.9633 85,29.5C 83.395,30.1007 82.0616,31.1007 81,32.5C 80.0508,29.8003 78.2175,28.967 75.5,30C 70.8285,32.6404 70.4952,35.6404 74.5,39C 73.2718,39.779 72.2718,40.779 71.5,42C 72.6502,43.981 73.9835,45.8143 75.5,47.5C 76.4054,48.9643 76.4054,50.2976 75.5,51.5C 75.38,52.5862 74.7133,53.2528 73.5,53.5C 71.9501,52.2677 70.2834,51.7677 68.5,52C 65.5878,53.8578 64.0878,56.3578 64,59.5C 66.9121,61.5218 66.7455,63.5218 63.5,65.5C 63.7538,67.4172 64.7538,68.7505 66.5,69.5C 66.5,70.1667 66.5,70.8333 66.5,71.5C 63.8852,69.6212 61.7186,67.2879 60,64.5C 59.1827,68.8424 57.6827,72.8424 55.5,76.5C 57.9213,63.2347 61.4213,50.2347 66,37.5C 68.424,31.6401 71.5907,26.3068 75.5,21.5C 75.5858,22.4959 75.2524,23.3292 74.5,24C 75.3567,24.6891 76.0233,25.5224 76.5,26.5C 82.5858,26.5361 88.0858,28.2028 93,31.5C 94.139,27.3424 94.639,23.0091 94.5,18.5C 94.4989,14.3188 94.1656,10.3188 93.5,6.5 Z"/></g>
<g><path style="opacity:1" fill="#d78c12" d="M 52.5,7.5 C 53.2755,20.9282 53.2755,34.2616 52.5,47.5C 52.8324,38.7454 52.4991,30.7454 51.5,23.5C 50.8333,23.5 50.1667,23.5 49.5,23.5C 48.3429,36.424 48.1762,50.0907 49,64.5C 49.2355,66.1193 50.0689,67.1193 51.5,67.5C 50.791,68.404 49.791,68.7373 48.5,68.5C 48.7373,67.209 48.404,66.209 47.5,65.5C 47.3409,46.1546 47.6742,26.8213 48.5,7.5C 49.8333,7.5 51.1667,7.5 52.5,7.5 Z"/></g>
<g><path style="opacity:1" fill="#ead1b4" d="M 89.5,4.5 C 91.4147,4.21552 93.0813,4.54885 94.5,5.5C 93.8333,5.5 93.5,5.83333 93.5,6.5C 85.0932,8.57044 79.0932,13.5704 75.5,21.5C 71.5907,26.3068 68.424,31.6401 66,37.5C 61.4213,50.2347 57.9213,63.2347 55.5,76.5C 54.8213,81.3224 53.8213,85.9891 52.5,90.5C 52.6159,87.1401 52.9492,83.8067 53.5,80.5C 55.2666,63.0426 59.7666,46.3759 67,30.5C 71.4929,20.8432 77.9929,12.8432 86.5,6.5C 88.0269,6.57298 89.0269,5.90632 89.5,4.5 Z"/></g>
<g><path style="opacity:1" fill="#ececdf" d="M 86.5,48.5 C 84.6064,47.9524 82.9397,46.9524 81.5,45.5C 80.1627,48.3905 78.1627,49.0572 75.5,47.5C 73.9835,45.8143 72.6502,43.981 71.5,42C 72.2718,40.779 73.2718,39.779 74.5,39C 70.4952,35.6404 70.8285,32.6404 75.5,30C 78.2175,28.967 80.0508,29.8003 81,32.5C 82.0616,31.1007 83.395,30.1007 85,29.5C 87.6312,30.9633 89.7979,32.9633 91.5,35.5C 90.91,36.7989 89.91,37.6322 88.5,38C 90.1243,39.1171 91.1243,40.6171 91.5,42.5C 89.8103,44.5193 88.1436,46.5193 86.5,48.5 Z"/></g>
<g><path style="opacity:1" fill="#cfae47" d="M 79.5,36.5 C 80.8333,36.5 82.1667,36.5 83.5,36.5C 83.5,38.1667 83.5,39.8333 83.5,41.5C 80.0897,41.6162 78.7564,39.9496 79.5,36.5 Z"/></g>
<g><path style="opacity:1" fill="#b83a06" d="M 52.5,7.5 C 53.4794,10.6248 53.8128,13.9581 53.5,17.5C 55.604,17.2011 57.604,17.5344 59.5,18.5C 58.1502,19.9501 56.4835,20.6168 54.5,20.5C 54.6665,31.8382 54.4999,43.1716 54,54.5C 53.8227,58.3563 53.3227,62.023 52.5,65.5C 52.5,59.5 52.5,53.5 52.5,47.5C 53.2755,34.2616 53.2755,20.9282 52.5,7.5 Z"/></g>
<g><path style="opacity:1" fill="#428810" d="M 14.5,9.5 C 19.1231,12.2887 22.9565,15.9553 26,20.5C 34.8931,35.7176 40.8931,52.0509 44,69.5C 46.1532,80.4182 47.6532,91.4182 48.5,102.5C 42.5924,100.88 37.259,98.2129 32.5,94.5C 28.5368,90.0355 24.3702,85.7022 20,81.5C 11.5568,71.0141 6.72348,59.0141 5.5,45.5C 5.5,32.5 5.5,19.5 5.5,6.5C 8.3815,7.68274 11.3815,8.68274 14.5,9.5 Z"/></g>
<g><path style="opacity:1" fill="#e9e8dc" d="M 27.5,32.5 C 30.2855,35.4739 29.6188,37.6406 25.5,39C 27.0614,39.941 28.3947,41.1076 29.5,42.5C 27.1882,44.3105 25.0216,46.3105 23,48.5C 21.395,47.8993 20.0616,46.8993 19,45.5C 15.9182,48.1973 13.0849,47.864 10.5,44.5C 9.00417,41.825 9.67084,39.825 12.5,38.5C 9.79675,37.374 9.13009,35.7073 10.5,33.5C 12.1857,31.9835 14.019,30.6502 16,29.5C 17.2853,29.9504 18.452,30.6171 19.5,31.5C 22.565,28.7006 25.2316,29.0339 27.5,32.5 Z"/></g>
<g><path style="opacity:1" fill="#4a7725" d="M 10.5,33.5 C 9.13009,35.7073 9.79675,37.374 12.5,38.5C 9.67084,39.825 9.00417,41.825 10.5,44.5C 13.0849,47.864 15.9182,48.1973 19,45.5C 20.0616,46.8993 21.395,47.8993 23,48.5C 25.0216,46.3105 27.1882,44.3105 29.5,42.5C 28.3947,41.1076 27.0614,39.941 25.5,39C 29.6188,37.6406 30.2855,35.4739 27.5,32.5C 31.0684,33.9692 31.4017,36.1358 28.5,39C 29.6241,39.8388 30.2908,41.0055 30.5,42.5C 29.7544,44.6767 28.7544,46.6767 27.5,48.5C 27.8333,49.1667 28.1667,49.8333 28.5,50.5C 30.198,49.3192 31.8647,49.3192 33.5,50.5C 35.6841,52.8509 37.6841,55.3509 39.5,58C 40.0082,64.3887 37.6749,69.3887 32.5,73C 28.4815,72.7368 24.4815,72.5702 20.5,72.5C 18.411,70.4201 16.7444,68.0867 15.5,65.5C 15.8988,62.578 16.0655,59.578 16,56.5C 16.6708,55.7476 17.5041,55.4142 18.5,55.5C 19.9331,53.4418 20.5997,51.1085 20.5,48.5C 18.4004,48.4772 16.5671,49.1439 15,50.5C 11.8282,49.502 9.49484,47.502 8,44.5C 7.57059,42.3313 8.07059,40.3313 9.5,38.5C 8.29412,36.4841 8.29412,34.4841 9.5,32.5C 10.1067,32.6236 10.44,32.9569 10.5,33.5 Z"/></g>
<g><path style="opacity:1" fill="#caaa47" d="M 17.5,36.5 C 18.8333,36.5 20.1667,36.5 21.5,36.5C 22.2436,39.9496 20.9103,41.6162 17.5,41.5C 17.5,39.8333 17.5,38.1667 17.5,36.5 Z"/></g>
<g><path style="opacity:1" fill="#fec92a" d="M 49.5,23.5 C 50.1667,67.5 50.8333,67.5 51.5,23.5C 52.4991,30.7454 52.8324,38.7454 52.5,47.5C 52.5,53.5 52.5,59.5 52.5,65.5C 51.6618,65.8417 51.3284,66.5084 51.5,67.5C 50.0689,67.1193 49.2355,66.1193 49,64.5C 48.1762,50.0907 48.3429,36.424 49.5,23.5 Z"/></g>
<g><path style="opacity:1" fill="#dda405" d="M 49.5,23.5 C 50.1667,23.5 50.8333,23.5 51.5,23.5C 50.8333,67.5 50.1667,67.5 49.5,23.5 Z"/></g>
<g><path style="opacity:1" fill="#b93707" d="M 52.5,7.5 C 51.1667,7.5 49.8333,7.5 48.5,7.5C 47.6742,26.8213 47.3409,46.1546 47.5,65.5C 46.6688,51.3392 46.1688,37.0059 46,22.5C 43.3301,21.7761 41.8301,20.1094 41.5,17.5C 43.5,17.5 45.5,17.5 47.5,17.5C 47.5,13.8333 47.5,10.1667 47.5,6.5C 49.4147,6.21552 51.0813,6.54885 52.5,7.5 Z"/></g>
<g><path style="opacity:1" fill="#e4e4da" d="M 75.5,51.5 C 78.6136,52.0913 81.1136,53.758 83,56.5C 83.6667,57.5 83.6667,58.5 83,59.5C 81.7453,60.2106 80.5786,61.044 79.5,62C 81.513,62.6797 82.8464,64.013 83.5,66C 81.8076,68.274 79.8076,70.1073 77.5,71.5C 75.9446,71.278 74.6113,70.6113 73.5,69.5C 71.1316,72.1479 68.7983,72.1479 66.5,69.5C 64.7538,68.7505 63.7538,67.4172 63.5,65.5C 66.7455,63.5218 66.9121,61.5218 64,59.5C 64.0878,56.3578 65.5878,53.8578 68.5,52C 70.2834,51.7677 71.9501,52.2677 73.5,53.5C 74.7133,53.2528 75.38,52.5862 75.5,51.5 Z"/></g>
<g><path style="opacity:1" fill="#132913" d="M 95.5,52.5 C 95.5,52.8333 95.5,53.1667 95.5,53.5C 94.2717,61.8768 90.9384,69.2101 85.5,75.5C 89.0063,68.8206 91.673,61.8206 93.5,54.5C 94.1667,53.8333 94.8333,53.1667 95.5,52.5 Z"/></g>
<g><path style="opacity:1" fill="#c6a23a" d="M 71.5,59.5 C 74.9496,58.7564 76.6162,60.0897 76.5,63.5C 74.8333,63.5 73.1667,63.5 71.5,63.5C 71.5,62.1667 71.5,60.8333 71.5,59.5 Z"/></g>
<g><path style="opacity:1" fill="#e9e9df" d="M 18.5,55.5 C 20.1857,53.9835 22.019,52.6502 24,51.5C 25,52.1667 26,52.8333 27,53.5C 31.6868,50.617 34.8535,51.9503 36.5,57.5C 36.1243,59.3829 35.1243,60.8829 33.5,62C 36.1997,62.9492 37.033,64.7825 36,67.5C 32.7912,72.7095 29.7912,72.7095 27,67.5C 23.001,72.9118 19.8343,72.2451 17.5,65.5C 17.7282,63.6031 18.7282,62.2697 20.5,61.5C 17.6095,60.1627 16.9428,58.1627 18.5,55.5 Z"/></g>
<g><path style="opacity:1" fill="#cca539" d="M 24.5,59.5 C 26.1667,59.5 27.8333,59.5 29.5,59.5C 29.5,60.8333 29.5,62.1667 29.5,63.5C 27.8333,63.5 26.1667,63.5 24.5,63.5C 24.5,62.1667 24.5,60.8333 24.5,59.5 Z"/></g>
<g><path style="opacity:1" fill="#416a20" d="M 86.5,48.5 C 84.4336,48.8054 82.2669,49.1387 80,49.5C 79.7207,51.4122 80.5541,52.7456 82.5,53.5C 83.6854,54.8566 84.6854,56.3566 85.5,58C 84.542,61.1633 84.3753,64.3299 85,67.5C 82.9312,70.0719 80.4312,72.0719 77.5,73.5C 74.8333,72.1667 72.1667,72.1667 69.5,73.5C 68.2613,73.0576 67.2613,72.3909 66.5,71.5C 66.5,70.8333 66.5,70.1667 66.5,69.5C 68.7983,72.1479 71.1316,72.1479 73.5,69.5C 74.6113,70.6113 75.9446,71.278 77.5,71.5C 79.8076,70.1073 81.8076,68.274 83.5,66C 82.8464,64.013 81.513,62.6797 79.5,62C 80.5786,61.044 81.7453,60.2106 83,59.5C 83.6667,58.5 83.6667,57.5 83,56.5C 81.1136,53.758 78.6136,52.0913 75.5,51.5C 76.4054,50.2976 76.4054,48.9643 75.5,47.5C 78.1627,49.0572 80.1627,48.3905 81.5,45.5C 82.9397,46.9524 84.6064,47.9524 86.5,48.5 Z"/></g>
<g><path style="opacity:1" fill="#40870f" d="M 93.5,54.5 C 91.673,61.8206 89.0063,68.8206 85.5,75.5C 76.4947,87.5132 65.1614,96.5132 51.5,102.5C 51.5524,98.8019 51.8857,95.1352 52.5,91.5C 52.5,91.1667 52.5,90.8333 52.5,90.5C 53.8213,85.9891 54.8213,81.3224 55.5,76.5C 57.6827,72.8424 59.1827,68.8424 60,64.5C 61.7186,67.2879 63.8852,69.6212 66.5,71.5C 67.2613,72.3909 68.2613,73.0576 69.5,73.5C 72.1667,72.1667 74.8333,72.1667 77.5,73.5C 80.4312,72.0719 82.9312,70.0719 85,67.5C 84.3753,64.3299 84.542,61.1633 85.5,58C 84.6854,56.3566 83.6854,54.8566 82.5,53.5C 82.5858,52.5041 82.2524,51.6708 81.5,51C 84.1978,52.0013 86.6978,51.5013 89,49.5C 89.5522,46.9533 90.8856,44.9533 93,43.5C 93.3333,41.8333 93.6667,40.1667 94,38.5C 94.5285,43.8538 94.3619,49.1871 93.5,54.5 Z"/></g>
<g><path style="opacity:1" fill="#0f220d" d="M 3.5,44.5 C 3.83333,44.5 4.16667,44.5 4.5,44.5C 4.5,45.1667 4.83333,45.5 5.5,45.5C 6.72348,59.0141 11.5568,71.0141 20,81.5C 24.3702,85.7022 28.5368,90.0355 32.5,94.5C 15.6489,82.1473 5.98221,65.4807 3.5,44.5 Z"/></g>
<g><path style="opacity:1" fill="#e4cab2" d="M 6.5,5.5 C 7.56764,4.56552 8.90097,4.23219 10.5,4.5C 11.9649,5.73685 13.6316,6.73685 15.5,7.5C 20.4692,11.6373 24.9692,16.3039 29,21.5C 34.5702,32.4308 39.2369,43.7641 43,55.5C 45.519,68.6343 48.019,81.6343 50.5,94.5C 51.1667,93.5 51.8333,92.5 52.5,91.5C 51.8857,95.1352 51.5524,98.8019 51.5,102.5C 50.5,103.833 49.5,103.833 48.5,102.5C 47.6532,91.4182 46.1532,80.4182 44,69.5C 40.8931,52.0509 34.8931,35.7176 26,20.5C 22.9565,15.9553 19.1231,12.2887 14.5,9.5C 12.4208,7.12695 9.75414,5.79362 6.5,5.5 Z"/></g>
<g><path style="opacity:1" fill="#d89a93" d="M 53.5,80.5 C 52.9492,83.8067 52.6159,87.1401 52.5,90.5C 52.5,90.8333 52.5,91.1667 52.5,91.5C 51.8333,92.5 51.1667,93.5 50.5,94.5C 50.7699,89.5499 51.7699,84.8833 53.5,80.5 Z"/></g>
<g><path style="opacity:1" fill="#122210" d="M 85.5,75.5 C 82.8873,81.6282 78.8873,86.7948 73.5,91C 68.044,95.7845 62.044,99.7845 55.5,103C 46.2591,104.724 38.5924,101.89 32.5,94.5C 37.259,98.2129 42.5924,100.88 48.5,102.5C 49.5,103.833 50.5,103.833 51.5,102.5C 65.1614,96.5132 76.4947,87.5132 85.5,75.5 Z"/></g>
</svg>

<svg xmlns="http://www.w3.org/2000/svg" width="102" height="107" style="shape-rendering:geometricPrecision;text-rendering:geometricPrecision;image-rendering:optimizeQuality;fill-rule:evenodd;clip-rule:evenodd"><path style="opacity:1" fill="#fefefd" d="M-.5-.5h102v107H-.5V-.5z"/><path style="opacity:1" fill="#ad3c43" d="M10.5 4.5h79c-.473 1.406-1.473 2.073-3 2a622.18 622.18 0 0 0-35.5-1c-12.186.001-24.02.668-35.5 2-1.868-.763-3.535-1.763-5-3z"/><path style="opacity:1" fill="#030a01" d="M89.5 4.5v-1h7a479.296 479.296 0 0 0 1 43.5 96.689 96.689 0 0 1-2 6.5v-1a552.845 552.845 0 0 0-1-47c-1.419-.951-3.085-1.284-5-1z"/><path style="opacity:1" fill="#1c0900" d="M89.5 3.5v1h-79c-1.599-.268-2.932.066-4 1-.617-.11-1.117-.444-1.5-1-.5 13.33-.667 26.663-.5 40h-1v-41h86z"/><path style="opacity:1" fill="#d72933" d="M86.5 6.5c-8.507 6.343-15.007 14.343-19.5 24-7.233 15.876-11.733 32.543-13.5 50-1.73 4.383-2.73 9.05-3 14a39210.158 39210.158 0 0 1-7.5-39 228.264 228.264 0 0 0-14-34 89.655 89.655 0 0 0-13.5-14c11.48-1.332 23.314-1.999 35.5-2 12.005 0 23.838.333 35.5 1z"/><path style="opacity:1" fill="#408a0a" d="M93.5 6.5c.666 3.819.999 7.819 1 12 .139 4.51-.361 8.842-1.5 13-4.914-3.297-10.414-4.964-16.5-5a7.253 7.253 0 0 0-2-2.5c.752-.67 1.086-1.504 1-2.5 3.593-7.93 9.593-12.93 18-15z"/><path style="opacity:1" fill="#4e7d2d" d="M6.5 5.5c3.254.294 5.92 1.627 8 4a71.22 71.22 0 0 1-9-3v39c-.667 0-1-.333-1-1-.167-13.337 0-26.67.5-40 .383.556.883.89 1.5 1z"/><path style="opacity:1" fill="#4a851b" d="M93.5 6.5c0-.667.333-1 1-1a552.845 552.845 0 0 1 1 47l-2 2a61.668 61.668 0 0 0 .5-16l-1 5c-2.114 1.453-3.448 3.453-4 6-2.302 2.001-4.802 2.501-7.5 1.5.752.67 1.086 1.504 1 2.5-1.946-.754-2.78-2.088-2.5-4 2.267-.361 4.434-.695 6.5-1 1.644-1.98 3.31-3.98 5-6-.376-1.883-1.376-3.383-3-4.5 1.41-.368 2.41-1.201 3-2.5-1.702-2.537-3.869-4.537-6.5-6-1.605.6-2.938 1.6-4 3-.95-2.7-2.782-3.533-5.5-2.5-4.671 2.64-5.005 5.64-1 9a9.564 9.564 0 0 0-3 3 32.894 32.894 0 0 0 4 5.5c.905 1.464.905 2.798 0 4-.12 1.086-.787 1.753-2 2-1.55-1.232-3.217-1.732-5-1.5-2.912 1.858-4.412 4.358-4.5 7.5 2.912 2.022 2.746 4.022-.5 6 .254 1.917 1.254 3.25 3 4v2a24.089 24.089 0 0 1-6.5-7c-.817 4.342-2.317 8.342-4.5 12a245.22 245.22 0 0 1 10.5-39c2.424-5.86 5.59-11.193 9.5-16 .086.996-.248 1.83-1 2.5a7.253 7.253 0 0 1 2 2.5c6.086.036 11.586 1.703 16.5 5 1.139-4.158 1.639-8.49 1.5-13-.001-4.181-.334-8.181-1-12z"/><path style="opacity:1" fill="#d78c12" d="M52.5 7.5a344.15 344.15 0 0 1 0 40c.332-8.755 0-16.755-1-24h-2c-1.157 12.924-1.324 26.59-.5 41 .236 1.62 1.069 2.62 2.5 3-.709.904-1.709 1.237-3 1 .237-1.291-.096-2.291-1-3-.16-19.345.174-38.679 1-58h4z"/><path style="opacity:1" fill="#ead1b4" d="M89.5 4.5c1.915-.284 3.581.049 5 1-.667 0-1 .333-1 1-8.407 2.07-14.407 7.07-18 15-3.91 4.807-7.076 10.14-9.5 16a245.22 245.22 0 0 0-10.5 39 98.641 98.641 0 0 1-3 14 76.94 76.94 0 0 1 1-10c1.767-17.457 6.267-34.124 13.5-50 4.493-9.657 10.993-17.657 19.5-24 1.527.073 2.527-.594 3-2z"/><path style="opacity:1" fill="#ececdf" d="M86.5 48.5c-1.894-.548-3.56-1.548-5-3-1.337 2.89-3.337 3.557-6 2a32.894 32.894 0 0 1-4-5.5 9.564 9.564 0 0 1 3-3c-4.005-3.36-3.671-6.36 1-9 2.718-1.033 4.55-.2 5.5 2.5 1.062-1.4 2.395-2.4 4-3 2.631 1.463 4.798 3.463 6.5 6-.59 1.299-1.59 2.132-3 2.5 1.624 1.117 2.624 2.617 3 4.5-1.69 2.02-3.356 4.02-5 6z"/><path style="opacity:1" fill="#cfae47" d="M79.5 36.5h4v5c-3.41.116-4.744-1.55-4-5z"/><path style="opacity:1" fill="#b83a06" d="M52.5 7.5c.98 3.125 1.313 6.458 1 10a9.864 9.864 0 0 1 6 1c-1.35 1.45-3.017 2.117-5 2 .166 11.338 0 22.672-.5 34-.177 3.856-.677 7.523-1.5 11v-18a344.15 344.15 0 0 0 0-40z"/><path style="opacity:1" fill="#428810" d="M14.5 9.5c4.623 2.789 8.456 6.455 11.5 11 8.893 15.218 14.893 31.55 18 49a281.1 281.1 0 0 1 4.5 33c-5.908-1.62-11.241-4.287-16-8a228.244 228.244 0 0 0-12.5-13c-8.443-10.486-13.277-22.486-14.5-36v-39a71.22 71.22 0 0 0 9 3z"/><path style="opacity:1" fill="#e9e8dc" d="M27.5 32.5c2.785 2.974 2.119 5.14-2 6.5a14.832 14.832 0 0 1 4 3.5 54.963 54.963 0 0 0-6.5 6c-1.605-.6-2.938-1.6-4-3-3.082 2.697-5.915 2.364-8.5-1-1.496-2.675-.83-4.675 2-6-2.703-1.126-3.37-2.793-2-5a32.894 32.894 0 0 1 5.5-4 11.074 11.074 0 0 1 3.5 2c3.065-2.8 5.732-2.466 8 1z"/><path style="opacity:1" fill="#4a7725" d="M10.5 33.5c-1.37 2.207-.703 3.874 2 5-2.83 1.325-3.496 3.325-2 6 2.585 3.364 5.418 3.697 8.5 1 1.062 1.4 2.395 2.4 4 3a54.963 54.963 0 0 1 6.5-6 14.832 14.832 0 0 0-4-3.5c4.119-1.36 4.785-3.526 2-6.5 3.568 1.47 3.902 3.636 1 6.5 1.124.839 1.79 2.005 2 3.5a24.577 24.577 0 0 1-3 6l1 2c1.698-1.18 3.365-1.18 5 0a64.99 64.99 0 0 1 6 7.5c.508 6.389-1.825 11.389-7 15-4.018-.263-8.018-.43-12-.5a25.306 25.306 0 0 1-5-7c.399-2.922.566-5.922.5-9 .67-.752 1.504-1.086 2.5-1 1.433-2.058 2.1-4.392 2-7-2.1-.023-3.933.644-5.5 2-3.172-.998-5.505-2.998-7-6-.43-2.169.07-4.169 1.5-6-1.206-2.016-1.206-4.016 0-6 .607.124.94.457 1 1z"/><path style="opacity:1" fill="#caaa47" d="M17.5 36.5h4c.744 3.45-.59 5.116-4 5v-5z"/><path style="opacity:1" fill="#fec92a" d="M49.5 23.5c.667 44 1.333 44 2 0 1 7.245 1.332 15.245 1 24v18c-.838.342-1.172 1.008-1 2-1.431-.38-2.264-1.38-2.5-3-.824-14.41-.657-28.076.5-41z"/><path style="opacity:1" fill="#dda405" d="M49.5 23.5h2c-.667 44-1.333 44-2 0z"/><path style="opacity:1" fill="#b93707" d="M52.5 7.5h-4a1138.737 1138.737 0 0 0-1 58 915.613 915.613 0 0 1-1.5-43c-2.67-.724-4.17-2.39-4.5-5h6v-11c1.915-.284 3.581.049 5 1z"/><path style="opacity:1" fill="#e4e4da" d="M75.5 51.5c3.114.591 5.614 2.258 7.5 5 .667 1 .667 2 0 3a20.473 20.473 0 0 0-3.5 2.5c2.013.68 3.346 2.013 4 4-1.692 2.274-3.692 4.107-6 5.5a6.893 6.893 0 0 1-4-2c-2.368 2.648-4.702 2.648-7 0-1.746-.75-2.746-2.083-3-4 3.246-1.978 3.412-3.978.5-6 .088-3.142 1.588-5.642 4.5-7.5 1.783-.232 3.45.268 5 1.5 1.213-.247 1.88-.914 2-2z"/><path style="opacity:1" fill="#132913" d="M95.5 52.5v1c-1.228 8.377-4.562 15.71-10 22a93.983 93.983 0 0 0 8-21l2-2z"/><path style="opacity:1" fill="#c6a23a" d="M71.5 59.5c3.45-.744 5.116.59 5 4h-5v-4z"/><path style="opacity:1" fill="#e9e9df" d="M18.5 55.5a32.894 32.894 0 0 1 5.5-4l3 2c4.687-2.883 7.853-1.55 9.5 4-.376 1.883-1.376 3.383-3 4.5 2.7.95 3.533 2.782 2.5 5.5-3.209 5.21-6.209 5.21-9 0-3.999 5.412-7.166 4.745-9.5-2 .228-1.897 1.228-3.23 3-4-2.89-1.337-3.557-3.337-2-6z"/><path style="opacity:1" fill="#cca539" d="M24.5 59.5h5v4h-5v-4z"/><path style="opacity:1" fill="#416a20" d="M86.5 48.5c-2.066.305-4.233.639-6.5 1-.28 1.912.554 3.246 2.5 4a20.938 20.938 0 0 1 3 4.5c-.958 3.163-1.125 6.33-.5 9.5-2.069 2.572-4.569 4.572-7.5 6-2.667-1.333-5.333-1.333-8 0-1.239-.442-2.239-1.11-3-2v-2c2.298 2.648 4.632 2.648 7 0a6.893 6.893 0 0 0 4 2c2.308-1.393 4.308-3.226 6-5.5-.654-1.987-1.987-3.32-4-4a20.473 20.473 0 0 1 3.5-2.5c.667-1 .667-2 0-3-1.886-2.742-4.386-4.409-7.5-5 .905-1.202.905-2.536 0-4 2.663 1.557 4.663.89 6-2 1.44 1.452 3.106 2.452 5 3z"/><path style="opacity:1" fill="#40870f" d="M93.5 54.5a93.983 93.983 0 0 1-8 21c-9.005 12.013-20.339 21.013-34 27a72.046 72.046 0 0 1 1-11v-1a98.641 98.641 0 0 0 3-14c2.183-3.658 3.683-7.658 4.5-12a24.089 24.089 0 0 0 6.5 7c.761.89 1.761 1.558 3 2 2.667-1.333 5.333-1.333 8 0 2.931-1.428 5.431-3.428 7.5-6-.625-3.17-.458-6.337.5-9.5a20.938 20.938 0 0 0-3-4.5c.086-.996-.248-1.83-1-2.5 2.698 1.001 5.198.501 7.5-1.5.552-2.547 1.886-4.547 4-6l1-5a61.668 61.668 0 0 1-.5 16z"/><path style="opacity:1" fill="#0f220d" d="M3.5 44.5h1c0 .667.333 1 1 1 1.223 13.514 6.057 25.514 14.5 36a228.244 228.244 0 0 1 12.5 13c-16.851-12.353-26.518-29.02-29-50z"/><path style="opacity:1" fill="#e4cab2" d="M6.5 5.5c1.068-.934 2.401-1.268 4-1 1.465 1.237 3.132 2.237 5 3a89.655 89.655 0 0 1 13.5 14 228.264 228.264 0 0 1 14 34c2.519 13.134 5.019 26.134 7.5 39l2-3a72.046 72.046 0 0 0-1 11c-1 1.333-2 1.333-3 0a281.1 281.1 0 0 0-4.5-33c-3.107-17.45-9.107-33.782-18-49-3.044-4.545-6.877-8.211-11.5-11-2.08-2.373-4.746-3.706-8-4z"/><path style="opacity:1" fill="#d89a93" d="M53.5 80.5a76.94 76.94 0 0 0-1 10v1l-2 3c.27-4.95 1.27-9.617 3-14z"/><path style="opacity:1" fill="#122210" d="M85.5 75.5c-2.613 6.128-6.613 11.295-12 15.5a82.076 82.076 0 0 1-18 12c-9.24 1.724-16.908-1.11-23-8.5 4.759 3.713 10.092 6.38 16 8 1 1.333 2 1.333 3 0 13.661-5.987 24.995-14.987 34-27z"/></svg>
